svgs/google_one.svg

<?xml version="1.0" encoding="UTF-8" standalone="no"?>
<svg
   width="24"
   height="24"
   viewBox="0 0 24 24"
   fill="none"
   version="1.1"
   id="svg24"
   sodipodi:docname="google_one.svg"
   inkscape:version="1.2.1 (9c6d41e410, 2022-07-14)"
   xmlns:inkscape="http://www.inkscape.org/namespaces/inkscape"
   xmlns:sodipodi="http://sodipodi.sourceforge.net/DTD/sodipodi-0.dtd"
   xmlns="http://www.w3.org/2000/svg"
   xmlns:svg="http://www.w3.org/2000/svg">
  <sodipodi:namedview
     id="namedview26"
     pagecolor="#ffffff"
     bordercolor="#666666"
     borderopacity="1.0"
     inkscape:pageshadow="2"
     inkscape:pageopacity="0.0"
     inkscape:pagecheckerboard="0"
     showgrid="false"
     inkscape:zoom="22.627417"
     inkscape:cx="-4.4194174"
     inkscape:cy="12.065009"
     inkscape:window-width="3072"
     inkscape:window-height="1694"
     inkscape:window-x="-11"
     inkscape:window-y="-11"
     inkscape:window-maximized="1"
     inkscape:current-layer="svg24"
     inkscape:showpageshadow="2"
     inkscape:deskcolor="#d1d1d1" />
  <g
     id="g572"
     transform="translate(0.03494967)">
    <path
       id="path6"
       style="fill:#000000"
       d="M 16.929688,7.8652344 14.498047,9.875 l -2,1.65625 v 2.753906 5.492188 c 0,1.2284 0.992997,2.222656 2.216797,2.222656 1.2238,0 2.214844,-0.995356 2.214844,-2.222656 v -2.097656 z" />
    <path
       d="m 16.9301,4.2214 c 0,-0.02611 0,-0.05109 -0.0011,-0.07607 0,-0.0042 -2e-4,-0.00841 -3e-4,-0.01258 -2e-4,-0.0082 -5e-4,-0.01624 3e-4,-0.02378 C 16.9278,4.08397 16.9256,4.05898 16.9233,4.03398 16.921,4.00216 16.9176,3.97148 16.9131,3.9408 16.9119,3.93247 16.9109,3.92413 16.9099,3.9158 16.9079,3.89914 16.9059,3.88247 16.9028,3.8658 16.8972,3.83519 16.8915,3.80438 16.8847,3.77263 16.8812,3.7499 16.8767,3.72831 16.8699,3.70559 16.8585,3.65786 16.846,3.609 16.8312,3.56014 16.821,3.52605 16.8097,3.49083 16.7972,3.45787 16.7847,3.42378 16.771,3.3897 16.7574,3.35674 16.746,3.32947 16.7335,3.3022 16.721,3.27493 16.7117,3.25701 16.6986,3.23053 16.6869,3.20687 16.6815,3.19603 16.6765,3.18578 16.6722,3.17721 16.654,3.14312 16.6335,3.10562 16.6108,3.07039 16.6027,3.05656 16.5939,3.04331 16.5851,3.02981 16.5815,3.02446 16.578,3.01906 16.5744,3.01358 16.5483,2.97381 16.521,2.9329 16.4915,2.89427 16.4495,2.83745 16.4051,2.78177 16.3563,2.7295 16.3324,2.70451 16.3074,2.67837 16.2824,2.65337 16.2574,2.62839 16.2325,2.60455 16.2075,2.58071 L 16.2051,2.57838 C 16.1877,2.56247 16.1703,2.54758 16.1529,2.53268 16.1442,2.52523 16.1355,2.51778 16.1267,2.5102 16.0733,2.46702 16.0199,2.42498 15.9643,2.38634 15.9586,2.38293 15.9529,2.37952 15.9472,2.37498 15.8949,2.33975 15.8427,2.30794 15.7881,2.27726 15.7518,2.25794 15.7143,2.23862 15.6768,2.22044 15.6472,2.20681 15.6177,2.19317 15.5881,2.18067 15.529,2.15454 15.4666,2.13181 15.4041,2.11136 15.3722,2.09999 15.3393,2.08977 15.3075,2.08181 15.2688,2.07045 15.2302,2.06022 15.1916,2.05227 15.1507,2.04318 15.112,2.03523 15.0734,2.02954 15.0325,2.02273 14.9927,2.01704 14.9541,2.0125 14.8745,2.00455 14.7961,2 14.7155,2 H 14.7143 C 14.6768,2 14.6393,2.00114 14.603,2.00227 14.578,2.00341 14.553,2.00568 14.528,2.00795 14.4962,2.01023 14.4655,2.01364 14.4348,2.01818 14.4087,2.02159 14.3825,2.025 14.3564,2.02954 l -0.0443,0.00682 c -0.0087,0.00183 -0.0173,0.00348 -0.0256,0.0051 -0.0123,0.00238 -0.0243,0.00469 -0.0358,0.0074 -0.067,0.01364 -0.1318,0.03182 -0.1954,0.05113 -0.0057,0.00189 -0.0114,0.00378 -0.0171,0.00568 -0.0287,0.0095 -0.0577,0.01913 -0.0852,0.02955 -0.0352,0.0125 -0.0682,0.02613 -0.1011,0.03977 l -0.0818,0.0375 -0.0978,0.04886 C 13.6382,2.27953 13.6007,2.29998 13.5655,2.32271 13.5517,2.33084 13.5384,2.33956 13.5249,2.34845 13.5196,2.35197 13.5142,2.35552 13.5087,2.35907 13.4667,2.38521 13.428,2.41248 13.3894,2.44202 12.9099,2.80089 12.5816,3.34919 12.5122,3.9744 12.5814,3.34842 12.9096,2.80085 13.3872,2.44189 13.3588,2.46235 13.3304,2.48394 13.3031,2.50666 L 7.80453,7.06323 c -0.94199,0.7795 -1.07608,2.17942 -0.29998,3.12707 0.43634,0.533 1.06925,0.8079 1.70672,0.8079 0.49656,0 0.99423,-0.1647 1.40563,-0.5068 L 12.4986,8.93358 V 8.93253 L 16.1245,5.93501 C 16.6563,5.4964 16.9301,4.86114 16.9301,4.2214 Z"
       fill="#FBBC04"
       id="path10"
       style="fill:#000000" />
  </g>
  <defs
     id="defs22">
    <linearGradient
       id="paint0_linear_17_165"
       x1="14.7143"
       y1="17.7842"
       x2="14.7143"
       y2="4.21707"
       gradientUnits="userSpaceOnUse">
      <stop
         stop-color="#1A73E8"
         id="stop12" />
      <stop
         offset="1"
         stop-color="#4285F4"
         id="stop14" />
    </linearGradient>
    <linearGradient
       id="paint1_linear_17_165"
       x1="14.7143"
       y1="17.7842"
       x2="14.7143"
       y2="4.21707"
       gradientUnits="userSpaceOnUse">
      <stop
         stop-color="#1A73E8"
         id="stop17" />
      <stop
         offset="1"
         stop-color="#4285F4"
         id="stop19" />
    </linearGradient>
  </defs>
</svg>

<?xml version="1.0" encoding="UTF-8" standalone="no"?>
<svg
   width="24"
   height="24"
   viewBox="0 0 24 24"
   fill="none"
   version="1.1"
   id="svg24"
   sodipodi:docname="google_one.svg"
   inkscape:version="1.1.1 (3bf5ae0d25, 2021-09-20)"
   xmlns:inkscape="http://www.inkscape.org/namespaces/inkscape"
   xmlns:sodipodi="http://sodipodi.sourceforge.net/DTD/sodipodi-0.dtd"
   xmlns="http://www.w3.org/2000/svg"
   xmlns:svg="http://www.w3.org/2000/svg">
  <sodipodi:namedview
     id="namedview26"
     pagecolor="#ffffff"
     bordercolor="#666666"
     borderopacity="1.0"
     inkscape:pageshadow="2"
     inkscape:pageopacity="0.0"
     inkscape:pagecheckerboard="0"
     showgrid="false"
     inkscape:zoom="22.627417"
     inkscape:cx="-0.55242717"
     inkscape:cy="12.065009"
     inkscape:window-width="2560"
     inkscape:window-height="1011"
     inkscape:window-x="0"
     inkscape:window-y="32"
     inkscape:window-maximized="1"
     inkscape:current-layer="svg24" />
  <path
     id="path6"
     style="fill:#000000"
     d="M 16.929688 7.8652344 L 14.498047 9.875 L 12.498047 11.53125 L 12.498047 14.285156 L 12.498047 19.777344 C 12.498047 21.005744 13.491044 22 14.714844 22 C 15.938644 22 16.929688 21.004644 16.929688 19.777344 L 16.929688 17.679688 L 16.929688 7.8652344 z " />
  <path
     d="M16.9301 4.2214C16.9301 4.19529 16.9301 4.17031 16.929 4.14533C16.929 4.14113 16.9288 4.13692 16.9287 4.13275C16.9285 4.12455 16.9282 4.11651 16.929 4.10897C16.9278 4.08397 16.9256 4.05898 16.9233 4.03398C16.921 4.00216 16.9176 3.97148 16.9131 3.9408C16.9119 3.93247 16.9109 3.92413 16.9099 3.9158C16.9079 3.89914 16.9059 3.88247 16.9028 3.8658C16.8972 3.83519 16.8915 3.80438 16.8847 3.77263C16.8812 3.7499 16.8767 3.72831 16.8699 3.70559C16.8585 3.65786 16.846 3.609 16.8312 3.56014C16.821 3.52605 16.8097 3.49083 16.7972 3.45787C16.7847 3.42378 16.771 3.3897 16.7574 3.35674C16.746 3.32947 16.7335 3.3022 16.721 3.27493C16.7117 3.25701 16.6986 3.23053 16.6869 3.20687C16.6815 3.19603 16.6765 3.18578 16.6722 3.17721C16.654 3.14312 16.6335 3.10562 16.6108 3.07039C16.6027 3.05656 16.5939 3.04331 16.5851 3.02981C16.5815 3.02446 16.578 3.01906 16.5744 3.01358C16.5483 2.97381 16.521 2.9329 16.4915 2.89427C16.4495 2.83745 16.4051 2.78177 16.3563 2.7295C16.3324 2.70451 16.3074 2.67837 16.2824 2.65337C16.2574 2.62839 16.2325 2.60455 16.2075 2.58071L16.2051 2.57838C16.1877 2.56247 16.1703 2.54758 16.1529 2.53268C16.1442 2.52523 16.1355 2.51778 16.1267 2.5102C16.0733 2.46702 16.0199 2.42498 15.9643 2.38634C15.9586 2.38293 15.9529 2.37952 15.9472 2.37498C15.8949 2.33975 15.8427 2.30794 15.7881 2.27726C15.7518 2.25794 15.7143 2.23862 15.6768 2.22044C15.6472 2.20681 15.6177 2.19317 15.5881 2.18067C15.529 2.15454 15.4666 2.13181 15.4041 2.11136C15.3722 2.09999 15.3393 2.08977 15.3075 2.08181C15.2688 2.07045 15.2302 2.06022 15.1916 2.05227C15.1507 2.04318 15.112 2.03523 15.0734 2.02954C15.0325 2.02273 14.9927 2.01704 14.9541 2.0125C14.8745 2.00455 14.7961 2 14.7155 2H14.7143C14.6768 2 14.6393 2.00114 14.603 2.00227C14.578 2.00341 14.553 2.00568 14.528 2.00795C14.4962 2.01023 14.4655 2.01364 14.4348 2.01818C14.4087 2.02159 14.3825 2.025 14.3564 2.02954L14.3121 2.03636C14.3034 2.03819 14.2948 2.03984 14.2865 2.04146C14.2742 2.04384 14.2622 2.04615 14.2507 2.04886C14.1837 2.0625 14.1189 2.08068 14.0553 2.09999C14.0496 2.10188 14.0439 2.10377 14.0382 2.10567C14.0095 2.11517 13.9805 2.1248 13.953 2.13522C13.9178 2.14772 13.8848 2.16135 13.8519 2.17499L13.7701 2.21249L13.6723 2.26135C13.6382 2.27953 13.6007 2.29998 13.5655 2.32271C13.5517 2.33084 13.5384 2.33956 13.5249 2.34845C13.5196 2.35197 13.5142 2.35552 13.5087 2.35907C13.4667 2.38521 13.428 2.41248 13.3894 2.44202C12.9099 2.80089 12.5816 3.34919 12.5122 3.9744C12.5814 3.34842 12.9096 2.80085 13.3872 2.44189C13.3588 2.46235 13.3304 2.48394 13.3031 2.50666L7.80453 7.06323C6.86254 7.84273 6.72845 9.24265 7.50455 10.1903C7.94089 10.7233 8.5738 10.9982 9.21127 10.9982C9.70783 10.9982 10.2055 10.8335 10.6169 10.4914L12.4986 8.93358V8.93253L16.1245 5.93501C16.6563 5.4964 16.9301 4.86114 16.9301 4.2214Z"
     fill="#FBBC04"
     id="path10"
     style="fill:#000000" />
  <defs
     id="defs22">
    <linearGradient
       id="paint0_linear_17_165"
       x1="14.7143"
       y1="17.7842"
       x2="14.7143"
       y2="4.21707"
       gradientUnits="userSpaceOnUse">
      <stop
         stop-color="#1A73E8"
         id="stop12" />
      <stop
         offset="1"
         stop-color="#4285F4"
         id="stop14" />
    </linearGradient>
    <linearGradient
       id="paint1_linear_17_165"
       x1="14.7143"
       y1="17.7842"
       x2="14.7143"
       y2="4.21707"
       gradientUnits="userSpaceOnUse">
      <stop
         stop-color="#1A73E8"
         id="stop17" />
      <stop
         offset="1"
         stop-color="#4285F4"
         id="stop19" />
    </linearGradient>
  </defs>
</svg>
